!! "[untitled]" [Burma] Instrumental work in 4 parts (excerpt only).
!! Transcribed by Reinhard, in Fritz Bose, 'Musikalische Voelkerkunde';
!! Freiburg: Atlantis-Musikbuecherei, 1953, p.186
!! Tuned	flue	flute	flute
!! gongs
**kern	**kern	**kern	**kern
*M4/4	*M4/4	*M4/4	*M4/4
=1	=1	=1	=1
4c#	4f#	1r	1r
4B	4e	.	.
4c#	2c#	.	.
4B	.	.	.
=2	=2	=2	=2
4c#	2B	2e	4ff#
4B	.	.	4ee
4c#	2A	2A	2a
4B	.	.	.
=3	=3	=3	=3
4c#	4f#	1r	1r
4B	4e	.	.
4c#	2c#	.	.
4B	.	.	.
=4	=4	=4	=4
4c#	2B	2e	4ff#
4B	.	.	4ee
4c#	2A	2A	2a
4B	.	.	.
=5	=5	=5	=5
4c#	4f#	1r	1r
4B	4e	.	.
4c#	2c#	.	.
4B	.	.	.
=6	=6	=6	=6
4c#	2B	2e	4ff#
4B	.	.	4ee
4c#	2A	2A	2a
4B	.	.	.
=7	=7	=7	=7
4c#	4f#	1r	1r
4B	4e	.	.
4c#	2c#	.	.
4B	.	.	.
=8	=8	=8	=8
4c#	2B	2e	4ff#
4B	.	.	4ee
4c#	2A	2A	2a
4B	.	.	.
====	====	====	====
*-	*-	*-	*-
